public/primaries/VideoGameClassic.svg

<svg id="Layer_1" data-name="Layer 1" xmlns="http://www.w3.org/2000/svg" width="64" height="64" viewBox="0 0 64 64">
  <defs>
    <style>
      .cls-1 {
        fill-rule: evenodd;
      }
    </style>
  </defs>
  <title>Icons 200</title>
  <path class="cls-1" d="M47.8688,49.8672A13.9616,13.9616,0,0,1,37.1795,46.861,3.9267,3.9267,0,0,0,34.7,45.99H29.2859a3.9268,3.9268,0,0,0-2.4791.871A13.9975,13.9975,0,1,1,17.9956,21.99H45.9909A14.002,14.002,0,0,1,47.8688,49.8672ZM25,35a1,1,0,0,0-1-1H20V30a1,1,0,0,0-1-1H17a1,1,0,0,0-1,1v4H12a1,1,0,0,0-1,1v2a1,1,0,0,0,1,1h4v4a1,1,0,0,0,1,1h2a1,1,0,0,0,1-1V38h4a1,1,0,0,0,1-1V35Zm17,0a3,3,0,1,0,3,3A3,3,0,0,0,42,35Zm8-4a3,3,0,1,0,3,3A3,3,0,0,0,50,31ZM46,14H38a4.0041,4.0041,0,0,0-4,4,2,2,0,1,1-4,0,8.0091,8.0091,0,0,1,8-8h8a4.0043,4.0043,0,0,0,4-4,2,2,0,0,1,4,0A8.0091,8.0091,0,0,1,46,14Z"/>
</svg>

<svg id="Layer_1" data-name="Layer 1" xmlns="http://www.w3.org/2000/svg" width="64" height="64" viewBox="0 0 64 64"><defs><style>.cls-1{fill-rule:evenodd}</style></defs><title>Icons 200</title><path class="cls-1" d="M47.869 49.867a13.962 13.962 0 0 1-10.69-3.006 3.927 3.927 0 0 0-2.479-.871h-5.414a3.927 3.927 0 0 0-2.48.871 13.998 13.998 0 1 1-8.81-24.871H45.99a14.002 14.002 0 0 1 1.878 27.877zM25 35a1 1 0 0 0-1-1h-4v-4a1 1 0 0 0-1-1h-2a1 1 0 0 0-1 1v4h-4a1 1 0 0 0-1 1v2a1 1 0 0 0 1 1h4v4a1 1 0 0 0 1 1h2a1 1 0 0 0 1-1v-4h4a1 1 0 0 0 1-1v-2zm17 0a3 3 0 1 0 3 3 3 3 0 0 0-3-3zm8-4a3 3 0 1 0 3 3 3 3 0 0 0-3-3zm-4-17h-8a4.004 4.004 0 0 0-4 4 2 2 0 1 1-4 0 8.01 8.01 0 0 1 8-8h8a4.004 4.004 0 0 0 4-4 2 2 0 0 1 4 0 8.01 8.01 0 0 1-8 8z"/></svg>
